flaticon/constructions/paint-brush-1.svg

<svg xmlns="http://www.w3.org/2000/svg" width="32" height="32" viewBox="0 0 24 24">
    <path d="M 12 21.601562 C 12.878906 21.601562 13.601562 20.878906 13.601562 20 C 13.601562 19.121094 12.878906 18.398438 12 18.398438 C 11.121094 18.398438 10.398438 19.121094 10.398438 20 C 10.398438 20.878906 11.121094 21.601562 12 21.601562 Z M 12 19.199219 C 12.441406 19.199219 12.800781 19.558594 12.800781 20 C 12.800781 20.441406 12.441406 20.800781 12 20.800781 C 11.558594 20.800781 11.199219 20.441406 11.199219 20 C 11.199219 19.558594 11.558594 19.199219 12 19.199219 Z M 12 19.199219"/>
    <path d="M 20 5.199219 L 20 1.199219 C 20 0.519531 19.480469 0 18.800781 0 L 5.199219 0 C 4.519531 0 4 0.519531 4 1.199219 L 4 5.199219 C 3.761719 5.199219 3.601562 5.359375 3.601562 5.601562 L 3.601562 9.199219 C 3.601562 9.441406 3.761719 9.601562 4 9.601562 L 4 12.398438 C 4 13.519531 4.878906 14.398438 6 14.398438 L 6.800781 14.398438 C 7.28125 14.398438 7.71875 14.601562 8.039062 14.960938 C 8.359375 15.359375 8.480469 15.839844 8.398438 16.320312 L 8 19 C 7.71875 20.640625 8.441406 22.359375 9.839844 23.320312 C 10.480469 23.761719 11.238281 24 12 24 C 12.761719 24 13.519531 23.800781 14.160156 23.320312 C 15.519531 22.359375 16.28125 20.679688 16 19 L 15.601562 16.320312 C 15.519531 15.800781 15.640625 15.320312 15.960938 14.960938 C 16.28125 14.601562 16.71875 14.398438 17.199219 14.398438 L 18 14.398438 C 19.121094 14.398438 20 13.519531 20 12.398438 L 20 9.601562 C 20.238281 9.601562 20.398438 9.441406 20.398438 9.199219 L 20.398438 5.601562 C 20.398438 5.359375 20.238281 5.199219 20 5.199219 Z M 4.398438 6 L 8 6 L 8 6.398438 C 8 7.28125 8.71875 8 9.601562 8 C 10.480469 8 11.199219 7.28125 11.199219 6.398438 L 11.199219 6 L 19.601562 6 L 19.601562 8.800781 L 4.398438 8.800781 Z M 13.199219 2.199219 L 13.199219 0.800781 L 18.800781 0.800781 C 19.039062 0.800781 19.199219 0.960938 19.199219 1.199219 L 19.199219 5.199219 L 11.199219 5.199219 L 11.199219 3.480469 C 11.398438 3.558594 11.601562 3.601562 11.800781 3.601562 C 12.558594 3.601562 13.199219 2.960938 13.199219 2.199219 Z M 12.398438 2.199219 C 12.398438 2.519531 12.121094 2.800781 11.800781 2.800781 C 11.480469 2.800781 11.199219 2.519531 11.199219 2.199219 L 11.199219 1.601562 C 11.199219 1.359375 11.039062 1.199219 10.800781 1.199219 C 10.558594 1.199219 10.398438 1.359375 10.398438 1.601562 L 10.398438 6.398438 C 10.398438 6.839844 10.039062 7.199219 9.601562 7.199219 C 9.160156 7.199219 8.800781 6.839844 8.800781 6.398438 L 8.800781 2 C 8.800781 1.761719 8.640625 1.601562 8.398438 1.601562 C 8.160156 1.601562 8 1.761719 8 2 L 8 3.199219 C 8 3.640625 7.640625 4 7.199219 4 C 6.761719 4 6.398438 3.640625 6.398438 3.199219 L 6.398438 0.800781 L 12.398438 0.800781 Z M 4.800781 1.199219 C 4.800781 1 5 0.800781 5.199219 0.800781 L 5.601562 0.800781 L 5.601562 3.199219 C 5.601562 4.078125 6.320312 4.800781 7.199219 4.800781 C 7.480469 4.800781 7.761719 4.71875 8 4.601562 L 8 5.199219 L 4.800781 5.199219 Z M 19.238281 12.398438 C 19.238281 13.078125 18.71875 13.601562 18.039062 13.601562 L 17.238281 13.601562 C 16.519531 13.601562 15.878906 13.921875 15.398438 14.441406 C 14.921875 15 14.71875 15.71875 14.839844 16.441406 L 15.238281 19.121094 C 15.441406 20.480469 14.839844 21.878906 13.71875 22.679688 C 12.71875 23.398438 11.320312 23.398438 10.320312 22.679688 C 9.160156 21.878906 8.601562 20.480469 8.800781 19.121094 L 9.199219 16.441406 C 9.320312 15.71875 9.121094 15 8.640625 14.441406 C 8.199219 13.921875 7.519531 13.601562 6.800781 13.601562 L 6 13.601562 C 5.460938 13.601562 5.023438 13.273438 4.863281 12.800781 L 6 12.800781 C 6.238281 12.800781 6.398438 12.640625 6.398438 12.398438 C 6.398438 12.160156 6.238281 12 6 12 L 4.800781 12 L 4.800781 11.199219 L 6.800781 11.199219 C 7.039062 11.199219 7.199219 11.039062 7.199219 10.800781 C 7.199219 10.558594 7.039062 10.398438 6.800781 10.398438 L 4.800781 10.398438 L 4.800781 9.601562 L 19.238281 9.601562 Z M 19.238281 12.398438"/>
</svg>

<svg xmlns="http://www.w3.org/2000/svg" width="32" height="32" viewBox="0 0 24 24">
    <path d="M12 21.602c.879 0 1.602-.723 1.602-1.602 0-.879-.723-1.602-1.602-1.602-.879 0-1.602.723-1.602 1.602 0 .879.723 1.602 1.602 1.602zm0-2.403a.802.802 0 0 1 0 1.602.802.802 0 0 1 0-1.602zm0 0"/>
    <path d="M20 5.2v-4c0-.68-.52-1.2-1.2-1.2H5.2C4.52 0 4 .52 4 1.2v4c-.238 0-.398.16-.398.402v3.597c0 .242.16.403.398.403v2.796c0 1.122.879 2 2 2h.8c.481 0 .919.204 1.24.563.32.398.44.879.358 1.36L8 19c-.281 1.64.441 3.36 1.84 4.32.64.442 1.398.68 2.16.68.762 0 1.52-.2 2.16-.68 1.36-.96 2.121-2.64 1.84-4.32l-.398-2.68c-.082-.52.039-1 .359-1.36a1.64 1.64 0 0 1 1.238-.562H18c1.121 0 2-.878 2-2V9.602c.238 0 .398-.16.398-.403V5.602c0-.243-.16-.403-.398-.403zM4.398 6H8v.398C8 7.281 8.719 8 9.602 8c.878 0 1.597-.719 1.597-1.602V6h8.403v2.8H4.398zM13.2 2.2V.8h5.602c.238 0 .398.16.398.4v4h-8V3.48c.2.079.403.122.602.122.758 0 1.398-.641 1.398-1.403zm-.8 0c0 .32-.278.6-.598.6a.618.618 0 0 1-.602-.6v-.598c0-.243-.16-.403-.398-.403-.242 0-.403.16-.403.403v4.796c0 .442-.359.801-.796.801-.442 0-.801-.36-.801-.8V2c0-.238-.16-.398-.403-.398C8.16 1.602 8 1.762 8 2v1.2c0 .44-.36.8-.8.8-.438 0-.802-.36-.802-.8V.8h6zM4.8 1.2c0-.2.199-.4.398-.4h.403v2.4c0 .878.718 1.6 1.597 1.6.281 0 .563-.081.801-.198v.597H4.8zm14.437 11.198c0 .68-.52 1.204-1.199 1.204h-.8c-.72 0-1.36.32-1.84.84a2.435 2.435 0 0 0-.56 2l.4 2.68a3.742 3.742 0 0 1-1.52 3.558c-1 .718-2.399.718-3.399 0-1.16-.801-1.718-2.2-1.52-3.559l.4-2.68a2.43 2.43 0 0 0-2.398-2.84h-.802c-.54 0-.977-.328-1.137-.8H6c.238 0 .398-.16.398-.403 0-.238-.16-.398-.398-.398H4.8v-.8h2c.24 0 .4-.16.4-.4 0-.241-.16-.402-.4-.402h-2v-.796h14.438zm0 0"/>
</svg>
